dist/img/icon-card-main-advantage-2.svg

<svg width="80" height="80" viewBox="0 0 80 80" fill="none" xmlns="http://www.w3.org/2000/svg">
<path fill-rule="evenodd" clip-rule="evenodd" d="M64.8914 52.9998H59.7126C59.463 55.2462 57.5523 56.9998 55.2408 56.9998C52.9293 56.9998 51.0176 55.2462 50.7679 52.9998H46.5891C46.1205 52.9998 46 52.6101 46 52.1301V26.8694C46 26.3894 46.1205 25.9998 46.5891 25.9998H55.7436C59.2553 25.9998 60.3961 28.2023 61.7154 30.7527L65.6316 38.8661C65.7014 38.9973 65.7402 39.1444 65.7402 39.2935V52.1301C65.7402 52.6101 65.36 52.9998 64.8914 52.9998ZM55.2408 47.9998C57.2917 47.9998 59.0272 49.3796 59.5667 51.2604H64.0426V39.5211L63.3088 37.9961C63.2891 37.9985 63.269 37.9998 63.2488 37.9998H52.232C51.9606 37.9998 51.7402 37.7758 51.7402 37.4999V27.7391H47.4379V51.2604H50.9138C51.4536 49.3796 53.1898 47.9998 55.2408 47.9998ZM57.3795 28.0109C58.3013 28.3855 58.8979 29.1571 59.5841 30.383L62.7402 36.9998H52.7402V27.9998H57.1327C57.2179 27.9998 57.3001 28.0034 57.3795 28.0109ZM52.7402 52.4998C52.7402 51.1218 53.8631 49.9998 55.2407 49.9998C56.6174 49.9998 57.7402 51.1218 57.7402 52.4998C57.7402 53.8787 56.6174 54.9998 55.2407 54.9998C53.8631 54.9998 52.7402 53.8787 52.7402 52.4998ZM31.5 49.9996C30.1211 49.9996 29 51.1216 29 52.4996C29 53.8785 30.1211 54.9996 31.5 54.9996C32.8789 54.9996 34 53.8785 34 52.4996C34 51.1216 32.8789 49.9996 31.5 49.9996ZM31.5 56.9996C29.0193 56.9996 27 54.9803 27 52.4996C27 50.0178 29.0193 47.9996 31.5 47.9996C33.9807 47.9996 36 50.0178 36 52.4996C36 54.9803 33.9807 56.9996 31.5 56.9996Z" fill="#393939"/>
<path d="M35 52H45C46.1046 52 47 51.1046 47 50V25C47 23.8954 46.1046 23 45 23H23C21.8954 23 21 23.8954 21 25V27.5" stroke="#393939" stroke-width="2" stroke-linecap="round"/>
<path d="M28 52H23C21.8954 52 21 51.1046 21 50V44.5" stroke="#393939" stroke-width="2" stroke-linecap="round"/>
<path d="M21 34.5V37.5" stroke="#393939" stroke-width="2" stroke-linecap="round"/>
<path d="M12 31L23 31" stroke="#83C150" stroke-width="2" stroke-linecap="round"/>
<path d="M15 41L26 41" stroke="#83C150" stroke-width="2" stroke-linecap="round"/>
<path d="M8 36L16 36" stroke="#83C150" stroke-width="2" stroke-linecap="round"/>
<path d="M37 52H51" stroke="#393939" stroke-width="2" stroke-linecap="round"/>
</svg>

<svg width="80" height="80" fill="none" xmlns="http://www.w3.org/2000/svg"><path fill-rule="evenodd" clip-rule="evenodd" d="M64.891 53h-5.178c-.25 2.246-2.16 4-4.472 4a4.508 4.508 0 01-4.473-4h-4.179c-.468 0-.589-.39-.589-.87V26.87c0-.48.12-.87.59-.87h9.154c3.511 0 4.652 2.202 5.971 4.753l3.917 8.113a.91.91 0 01.108.428V52.13c0 .48-.38.87-.849.87zm-9.65-5a4.51 4.51 0 014.326 3.26h4.476V39.521l-.734-1.525a.497.497 0 01-.06.004H52.232a.496.496 0 01-.492-.5v-9.76h-4.302v23.52h3.476A4.51 4.51 0 0155.24 48zm2.139-19.99c.921.375 1.518 1.147 2.204 2.373L62.74 37h-10v-9h4.393c.085 0 .167.003.246.01zM52.74 52.5c0-1.378 1.123-2.5 2.5-2.5s2.5 1.122 2.5 2.5c0 1.379-1.123 2.5-2.5 2.5a2.504 2.504 0 01-2.5-2.5zM31.5 50a2.503 2.503 0 00-2.5 2.5c0 1.379 1.121 2.5 2.5 2.5s2.5-1.121 2.5-2.5c0-1.378-1.121-2.5-2.5-2.5zm0 7c-2.48 0-4.5-2.02-4.5-4.5 0-2.482 2.02-4.5 4.5-4.5s4.5 2.018 4.5 4.5c0 2.48-2.02 4.5-4.5 4.5z" fill="#393939"/><path d="M35 52h10a2 2 0 002-2V25a2 2 0 00-2-2H23a2 2 0 00-2 2v2.5M28 52h-5a2 2 0 01-2-2v-5.5m0-10v3" stroke="#393939" stroke-width="2" stroke-linecap="round"/><path d="M12 31h11m-8 10h11M8 36h8" stroke="#83C150" stroke-width="2" stroke-linecap="round"/><path d="M37 52h14" stroke="#393939" stroke-width="2" stroke-linecap="round"/></svg>
